elements/rpg-character/lib/face/3.svg

<svg xmlns="http://www.w3.org/2000/svg" fill="none" width="113" height="142" viewBox="0 0 113 142"><path d="M43 72h5v-5h10v5h5v5h-5v-5H48v5h-5v-5Z" fill="#000"/></svg>

<svg width="113" height="142" viewBox="0 0 113 142" fill="none" xmlns="http://www.w3.org/2000/svg">
<path d="M43 72H48V67H58V72H63V77H58V72H48V77H43V72Z" fill="black"/>
</svg>
